static/logos/lyft-wordmark-color.svg

<svg width="50" height="36" viewBox="0 0 50 36" fill="none" xmlns="http://www.w3.org/2000/svg">
<g clip-path="url(#clip0_1_2102)">
<path fill-rule="evenodd" clip-rule="evenodd" d="M0 0.448192H7.59275V20.8895C7.59275 24.1244 9.06786 26.0514 10.2343 26.8774C8.99941 27.9786 5.22576 28.9422 2.4127 26.602C0.754222 25.2226 0 22.9543 0 20.8206V0.448192ZM47.4517 17.4283V15.2801H49.7674V7.74381H47.2243C46.2481 3.21917 42.2325 -0.171326 37.43 -0.171326C31.8976 -0.171326 27.413 4.32772 27.413 9.87728V27.4769C28.9891 27.6991 30.8668 27.4493 32.4644 26.1203C34.1227 24.7407 34.8769 22.4726 34.8769 20.3389V19.6905H38.669V12.1542H34.8769V9.87728H34.886C34.886 8.46798 36.0249 7.32548 37.43 7.32548C38.8349 7.32548 39.9784 8.46798 39.9784 9.87728V17.4283C39.9784 22.9779 44.4678 27.4769 50 27.4769V19.9801C48.5951 19.9801 47.4517 18.8376 47.4517 17.4283ZM18.6952 7.74381V18.8042C18.6952 19.4321 18.1759 19.9411 17.5351 19.9411C16.8942 19.9411 16.3749 19.4321 16.3749 18.8042V7.74381H8.86199V20.7519C8.86199 23.0919 9.6531 26.0514 13.2532 27.015C16.8571 27.9796 18.9478 25.9827 18.9478 25.9827C18.7573 27.2983 17.5222 28.2619 15.5326 28.4684C14.0271 28.6245 12.1019 28.1243 11.1416 27.7113V34.603C13.5886 35.3269 16.1769 35.5608 18.7098 35.0677C23.3067 34.173 26.2079 30.3189 26.2079 25.1912V7.74381H18.6952Z" fill="#EA0B8C"/>
</g>
<defs>
<clipPath id="clip0_1_2102">
<rect width="50" height="35.4271" fill="white"/>
</clipPath>
</defs>
</svg>

<svg xmlns="http://www.w3.org/2000/svg" width="88.889" height="64" fill="none" viewBox="0 0 50 36"><g clip-path="url(#a)"><path fill="#EA0B8C" fill-rule="evenodd" d="M0 .448h7.593V20.89c0 3.234 1.475 5.161 2.641 5.987C9 27.98 5.226 28.942 2.413 26.602.754 25.222 0 22.954 0 20.821V.448Zm47.452 16.98V15.28h2.315V7.744h-2.543c-.976-4.525-4.991-7.915-9.794-7.915-5.532 0-10.017 4.499-10.017 10.048v17.6c1.576.222 3.454-.028 5.051-1.357 1.659-1.38 2.413-3.647 2.413-5.781v-.648h3.792v-7.537h-3.792V9.877h.009a2.548 2.548 0 0 1 2.544-2.552 2.552 2.552 0 0 1 2.548 2.552v7.551c0 5.55 4.49 10.049 10.022 10.049V19.98a2.552 2.552 0 0 1-2.548-2.552ZM18.695 7.744v11.06c0 .628-.52 1.137-1.16 1.137-.64 0-1.16-.509-1.16-1.137V7.744H8.862v13.008c0 2.34.791 5.3 4.391 6.263 3.604.965 5.695-1.032 5.695-1.032-.19 1.315-1.426 2.279-3.415 2.485-1.506.157-3.431-.344-4.391-.757v6.892c2.447.724 5.035.958 7.568.465 4.597-.895 7.498-4.75 7.498-9.877V7.744h-7.513Z" clip-rule="evenodd"/></g><defs><clipPath id="a"><path fill="#fff" d="M0 0h50v35.427H0z"/></clipPath></defs></svg>
